assets/gcpdataqna/original.svg

<svg height="24" width="24" xmlns="http://www.w3.org/2000/svg"><path d="m16.791 6.375a.84.84 0 0 1 .834.846v10.419a.685.685 0 0 1 -.75.735h-12.187l-2.438 2.437v-13.591a.84.84 0 0 1 .834-.846z" fill="#4285f4"/><path d="m12.375 11.438h2.813v4.875h-2.813z" fill="#669df6"/><path d="m8.625 8.625h2.813v7.688h-2.813z" fill="#aecbfa"/><path d="m4.875 10.125h2.813v6.188h-2.813z" fill="#fff"/><path d="m20.916 3.188a.84.84 0 0 1 .833.8v13.637l-2.25-2.25h-.75v-9.3a.823.823 0 0 0 -.824-.821h-11.55v-1.221a.84.84 0 0 1 .8-.845z" fill="#669df6"/></svg>

<svg xmlns="http://www.w3.org/2000/svg" width="24" height="24"><path fill="#4285f4" d="M16.791 6.375a.84.84 0 0 1 .834.846V17.64a.685.685 0 0 1-.75.735H4.688L2.25 20.812V7.221a.84.84 0 0 1 .834-.846z"/><path fill="#669df6" d="M12.375 11.438h2.813v4.875h-2.813z"/><path fill="#aecbfa" d="M8.625 8.625h2.813v7.688H8.625z"/><path fill="#fff" d="M4.875 10.125h2.813v6.188H4.875z"/><path fill="#669df6" d="M20.916 3.188a.84.84 0 0 1 .833.8v13.637l-2.25-2.25h-.75v-9.3a.823.823 0 0 0-.824-.821H6.375V4.033a.84.84 0 0 1 .8-.845z"/></svg>
